assets/images/sprk.svg

<svg width="541" height="641" viewBox="0 0 541 641" fill="none" xmlns="http://www.w3.org/2000/svg">
<path fill-rule="evenodd" clip-rule="evenodd" d="M302.278 144.782L372.762 43.7064C387.816 22.1182 417.46 16.864 438.973 31.9709C460.486 47.0777 465.722 76.8249 450.667 98.4131L380.184 199.489L485.18 180.879C511.037 176.296 535.7 193.615 540.267 219.562C544.834 245.509 527.576 270.259 501.719 274.842L396.722 293.452L497.446 364.182C518.959 379.289 524.195 409.036 509.141 430.624C494.086 452.212 464.443 457.466 442.93 442.36L342.206 371.63L360.752 476.993C365.319 502.94 348.06 527.69 322.203 532.273C296.346 536.856 271.682 519.537 267.115 493.589L248.57 388.226L86.4996 620.64C71.4454 642.228 41.8018 647.483 20.2888 632.376C-1.22415 617.269 -6.46007 587.522 8.59414 565.934L170.665 333.52L65.6687 352.13C39.8118 356.713 15.1483 339.393 10.5812 313.446C6.0142 287.499 23.273 262.749 49.1299 258.166L154.126 239.556L53.4027 168.826C31.8897 153.719 26.6539 123.972 41.7081 102.384C56.7623 80.7958 86.4059 75.5416 107.919 90.6485L208.642 161.378L190.097 56.0152C185.53 30.0679 202.789 5.31822 228.646 0.735216C254.503 -3.84779 279.166 13.4714 283.733 39.4187L302.278 144.782Z" fill="white"/>
</svg>

<svg xmlns="http://www.w3.org/2000/svg" width="541" height="641" fill="none" viewBox="0 0 541 641"><path fill="#fff" fill-rule="evenodd" d="m302.278 144.782 70.484-101.076c15.054-21.588 44.698-26.842 66.211-11.735s26.749 44.854 11.694 66.442L380.184 199.49l104.996-18.61c25.857-4.583 50.52 12.736 55.087 38.683s-12.691 50.697-38.548 55.28l-104.997 18.61 100.724 70.73c21.513 15.107 26.749 44.854 11.695 66.442-15.055 21.588-44.698 26.842-66.211 11.736l-100.724-70.73 18.546 105.363c4.567 25.947-12.692 50.697-38.549 55.28s-50.521-12.736-55.088-38.684L248.57 388.226 86.5 620.64c-15.055 21.588-44.698 26.843-66.211 11.736s-26.75-44.854-11.695-66.442L170.665 333.52 65.669 352.13c-25.857 4.583-50.52-12.737-55.088-38.684s12.692-50.697 38.549-55.28l104.996-18.61-100.723-70.73c-21.513-15.107-26.75-44.854-11.695-66.442s44.698-26.842 66.211-11.736l100.723 70.73-18.545-105.363C185.53 30.068 202.789 5.318 228.646.735s50.52 12.736 55.087 38.684z" clip-rule="evenodd"/></svg>
